archdroid-icon-theme/Archdroid-Blue/places/scalable/mail-move.svg

<svg fill="#2196F3" height="48" viewBox="0 0 48 48" width="48" xmlns="http://www.w3.org/2000/svg"><path d="m44 12h-32c-2.21 0-3.98 1.79-3.98 4l-.02 24c0 2.21 1.79 4 4 4h32c2.21 0 4-1.79 4-4v-24c0-2.21-1.79-4-4-4zm0 8-16 10-16-10v-4l16 10 16-10zm-40-16c-2.21 0-3.980469 1.79-3.980469 4l-.019531 24h4v-24h32v-4z" fill="#2196F3"/></svg>

<svg fill="#2196F3" height="48" version="1.1" viewBox="0 0 48 48" width="48" xmlns="http://www.w3.org/2000/svg"><path d="m44 12l-32 0c-2.21 0-3.98 1.79-3.98 4L8 40c0 2.21 1.79 4 4 4l32 0c2.21 0 4-1.79 4-4l0-24c0-2.21-1.79-4-4-4zm0 8l-16 10-16-10 0-4 16 10 16-10 0 4zM4 4C1.79 4 .019531 5.79.019531 8L0 32 4 32 4 8 36 8 36 4 4 4Z"/></svg>
